X: 37684
T: Snug In The Blanket
R: jig
M: 6/8
K: Dmajor
|:=c|BGd =c2A|BGd =c2A|BGd AGF|EFE E2=c|
BGd =c2A|BGd =c2A|BdB AGF|DED D2:|
|:G|FGA AFd|AFd AFd|BGd AGF|EFE E2G|
FGA AFd|AFd AFd|B/c/dB AFA|DED D2:|
|:G|F2D E2D|F2D G2E|FAd AGF|EFE E2G|
F2D E2D|F2D G2E|d2B AFA|DED D2:|
|:g|fdd edd|fdd ecA|BGd AGF|EFE E2g|
fdd edd|fdd ecA|B/c/dB AFA|DED D2:|

